themes/default/assets/images/icons/mid/collaborative.svg

<?xml version="1.0" encoding="UTF-8"?>
<svg width="100px" height="75px" viewBox="0 0 100 75" version="1.1" xmlns="http://www.w3.org/2000/svg" xmlns:xlink="http://www.w3.org/1999/xlink">
    <!-- Generator: sketchtool 59 (101010) - https://sketch.com -->
    <title>9B66C50D-65A3-48F2-A4F2-91543061E50A</title>
    <desc>Created with sketchtool.</desc>
    <g id="Page-1" stroke="none" stroke-width="1" fill="none" fill-rule="evenodd">
        <g id="Icons" transform="translate(-134.000000, -2286.000000)" fill-rule="nonzero">
            <g id="mid-icon-collaborative" transform="translate(134.000000, 2286.000000)">
                <path d="M87.16,22.6799006 C82.6267432,22.7295769 78.9872563,26.4359364 79.0202175,30.9693445 C79.0531788,35.5027526 82.746174,39.1557996 87.2796725,39.139509 C91.8131709,39.1231092 95.4797289,35.4435279 95.48,30.91 C95.4524625,26.3409733 91.7290559,22.657844 87.16,22.6799006 Z M87.16,37.7500675 C83.3931009,37.7059397 80.3709187,34.6243327 80.4002067,30.8572898 C80.4294948,27.0902468 83.4992265,24.0560033 87.2663553,24.0704668 C91.0334842,24.0850339 94.0797423,27.1428432 94.08,30.91 C94.0524782,34.7074303 90.9574936,37.7666347 87.16,37.7500675 L87.16,37.7500675 Z" id="Shape" fill="#002465"></path>
                <path d="M12.84,22.6799006 C8.30674315,22.7295769 4.66725629,26.4359364 4.70021754,30.9693445 C4.73317879,35.5027526 8.42617401,39.1557996 12.9596725,39.139509 C17.4931709,39.1231092 21.1597289,35.4435279 21.16,30.91 C21.1324625,26.3409733 17.4090559,22.657844 12.84,22.6799006 Z M12.84,37.7500675 C9.07310086,37.7059397 6.05091871,34.6243327 6.08020674,30.8572898 C6.10949477,27.0902468 9.17922648,24.0560033 12.9463553,24.0704668 C16.7134842,24.0850339 19.7597423,27.1428432 19.76,30.91 C19.7324782,34.7074303 16.6374936,37.7666347 12.84,37.7500675 L12.84,37.7500675 Z" id="Shape" fill="#002465"></path>
                <path d="M50,-9.94377278e-05 C45.4309441,-0.022155977 41.7075375,3.66097335 41.68,8.23 C41.68,12.8250091 45.4049909,16.55 50,16.55 C54.5950091,16.55 58.32,12.8250091 58.32,8.23 C58.2924625,3.66097335 54.5690559,-0.022155977 50,-9.94377278e-05 Z M50,15.0700675 C46.2025064,15.0866347 43.1075218,12.0274303 43.08,8.23 C43.08,4.40818953 46.1781895,1.31 50,1.31 C53.8218105,1.31 56.92,4.40818953 56.92,8.23 C56.8924782,12.0274303 53.7974936,15.0866347 50,15.0700675 Z" id="Shape" fill="#002465"></path>
                <path d="M87.16,41.8998546 C80.1134136,41.8667429 74.3695459,47.5435093 74.32,54.59 L74.32,74.3 C74.32,74.6865993 74.6334007,75 75.02,75 C75.4065993,75 75.72,74.6865993 75.72,74.3 L75.72,54.59 C75.72,48.2718625 80.8418625,43.15 87.16,43.15 C93.4781375,43.15 98.6,48.2718625 98.6,54.59 L98.6,74.3 C98.6,74.6865993 98.9134007,75 99.3,75 C99.6865993,75 100,74.6865993 100,74.3 L100,54.59 C99.9504541,47.5435093 94.2065864,41.8667429 87.16,41.8998546 Z" id="Path" fill="#A6C4DD"></path>
                <path d="M81.31,52.94 C80.9234007,52.94 80.61,53.2534007 80.61,53.64 L80.61,74.3 C80.61,74.6865993 80.9234007,75 81.31,75 C81.6965993,75 82.01,74.6865993 82.01,74.3 L82.01,53.64 C82.01,53.4543485 81.9362502,53.2763007 81.8049747,53.1450253 C81.6736993,53.0137498 81.4956515,52.94 81.31,52.94 Z" id="Path" fill="#A6C4DD"></path>
                <path d="M93,52.94 C92.6134007,52.94 92.3,53.2534007 92.3,53.64 L92.3,74.3 C92.3,74.6865993 92.6134007,75 93,75 C93.3865993,75 93.7,74.6865993 93.7,74.3 L93.7,53.64 C93.7,53.4543485 93.6262502,53.2763007 93.4949747,53.1450253 C93.3636993,53.0137498 93.1856515,52.94 93,52.94 Z" id="Path" fill="#A6C4DD"></path>
                <path d="M12.84,41.8998546 C5.7934136,41.8667429 0.0495459208,47.5435093 0,54.59 L0,74.3 C0,74.6865993 0.313400675,75 0.7,75 C1.08659932,75 1.4,74.6865993 1.4,74.3 L1.4,54.59 C1.4,48.2718625 6.52186246,43.15 12.84,43.15 C19.1581375,43.15 24.28,48.2718625 24.28,54.59 L24.28,74.3 C24.28,74.6865993 24.5934007,75 24.98,75 C25.3665993,75 25.68,74.6865993 25.68,74.3 L25.68,54.59 C25.6304541,47.5435093 19.8865864,41.8667429 12.84,41.8998546 Z" id="Path" fill="#A6C4DD"></path>
                <path d="M7,52.94 C6.61340068,52.94 6.3,53.2534007 6.3,53.64 L6.3,74.3 C6.3,74.6865993 6.61340068,75 7,75 C7.38659932,75 7.7,74.6865993 7.7,74.3 L7.7,53.64 C7.7,53.2534007 7.38659932,52.94 7,52.94 Z" id="Path" fill="#A6C4DD"></path>
                <path d="M18.69,52.94 C18.3034007,52.94 17.99,53.2534007 17.99,53.64 L17.99,74.3 C17.99,74.6865993 18.3034007,75 18.69,75 C19.0765993,75 19.39,74.6865993 19.39,74.3 L19.39,53.64 C19.39,53.2534007 19.0765993,52.94 18.69,52.94 Z" id="Path" fill="#A6C4DD"></path>
                <path d="M50,19.2098989 C42.9517868,19.1822721 37.2095423,24.8619064 37.16,31.91 L37.16,51.62 C37.16,52.0065993 37.4734007,52.32 37.86,52.32 C38.2465993,52.32 38.56,52.0065993 38.56,51.62 L38.56,31.91 C38.56,25.5918625 43.6818625,20.47 50,20.47 C56.3181375,20.47 61.44,25.5918625 61.44,31.91 L61.44,51.62 C61.44,52.0065993 61.7534007,52.32 62.14,52.32 C62.5265993,52.32 62.84,52.0065993 62.84,51.62 L62.84,31.91 C62.7904577,24.8619064 57.0482132,19.1822721 50,19.2098989 L50,19.2098989 Z" id="Path" fill="#A6C4DD"></path>
                <path d="M44.15,30.2599991 C43.7634007,30.2599991 43.45,30.5734007 43.45,30.96 L43.45,51.62 C43.45,52.0065993 43.7634007,52.32 44.15,52.32 C44.5365993,52.32 44.85,52.0065993 44.85,51.62 L44.85,31 C44.8610171,30.8075204 44.7921602,30.6190184 44.6596717,30.4789592 C44.5271833,30.3388999 44.3427944,30.259685 44.15,30.2599991 Z" id="Path" fill="#A6C4DD"></path>
                <path d="M55.85,30.2599991 C55.4634007,30.2599991 55.15,30.5734007 55.15,30.96 L55.15,51.62 C55.15,52.0065993 55.4634007,52.3199999 55.85,52.3199999 C56.2365993,52.3199999 56.55,52.0065993 56.55,51.62 L56.55,31 C56.5610171,30.8075204 56.4921602,30.6190184 56.3596717,30.4789592 C56.2271833,30.3388999 56.0427944,30.259685 55.85,30.2599991 Z" id="Path" fill="#A6C4DD"></path>
                <path d="M63.37,65.17 C63.3790014,65.1305064 63.3790014,65.0894936 63.37,65.05 C63.3968293,64.9654097 63.3968293,64.8745903 63.37,64.79 C63.3781182,64.7470469 63.3781182,64.7029531 63.37,64.66 L63.3,64.55 L63.3,64.46 L59.38,60.22 C59.2497469,60.0830356 59.0690108,60.0054997 58.88,60.0054997 C58.6909892,60.0054997 58.5102531,60.0830356 58.38,60.22 C58.2403251,60.3487436 58.1608687,60.5300421 58.1608687,60.72 C58.1608687,60.9099579 58.2403251,61.0912564 58.38,61.22 L61.28,64.36 L37.87,64.36 L37.87,65.73 L61.14,65.73 L58.35,68.83 C58.2074801,68.9571227 58.1259821,69.1390233 58.1259821,69.33 C58.1259821,69.5209767 58.2074801,69.7028773 58.35,69.83 C58.4748121,69.9463963 58.6393379,70.0107759 58.81,70.0100069 C59.0051254,70.0100069 59.1908729,69.9262878 59.32,69.78 L63.2,65.48 C63.2,65.48 63.2,65.42 63.2,65.4 C63.2886718,65.3531482 63.3512263,65.2685156 63.37,65.17 L63.37,65.17 Z" id="Path" fill="#2364F9"></path>
                <path d="M32.34,7.56 L21.16,7.56 C20.97,7.56 16.69,7.3 13.98,9.82 C12.5417449,11.2146193 11.7699606,13.1586421 11.86,15.16 L11.86,18 L8.69,15.16 C8.40798138,14.9798941 8.0373842,15.0280999 7.81082543,15.2743594 C7.58426666,15.5206189 7.56705757,15.8939417 7.77,16.16 L12.09,20.02 L12.22,20.09 L12.29,20.14 C12.3760869,20.1541776 12.4639131,20.1541776 12.55,20.14 C12.6360057,20.1551368 12.7239943,20.1551368 12.81,20.14 L12.89,20.09 C12.9311078,20.0658798 12.9682173,20.0355175 13,20 L17.26,16.1 C17.3996749,15.9712564 17.4791313,15.7899579 17.4791313,15.6 C17.4791313,15.4100421 17.3996749,15.2287436 17.26,15.1 C17.1297469,14.9630356 16.9490108,14.8854997 16.76,14.8854997 C16.5709892,14.8854997 16.3902531,14.9630356 16.26,15.1 L13.24,18 L13.24,15.15 C13.1534529,13.5325803 13.7652292,11.9557998 14.92,10.82 C17.18,8.7 21.02,8.92 21.11,8.93 L32.34,8.93 C32.7210765,8.93 33.03,8.62107648 33.03,8.24 C33.03,7.85892352 32.7210765,7.55 32.34,7.55 L32.34,7.56 Z" id="Path" fill="#2364F9"></path>
                <path d="M85.76,9.81 C83.05,7.29 78.76,7.54 78.63,7.55 L68.05,7.55 L71,4.43 C71.1396749,4.30125638 71.2191313,4.1199579 71.2191313,3.93 C71.2191313,3.7400421 71.1396749,3.55874362 71,3.43 C70.8697469,3.29303562 70.6890108,3.21549974 70.5,3.21549974 C70.3109892,3.21549974 70.1302531,3.29303562 70,3.43 L66,7.73 C66,7.73 66,7.8 65.95,7.83 C65.9209485,7.86269807 65.8973165,7.8998342 65.88,7.94 C65.8743427,7.98314869 65.8743427,8.02685131 65.88,8.07 C65.8744545,8.11315592 65.8744545,8.15684408 65.88,8.2 C65.8759088,8.24323677 65.8759088,8.28676323 65.88,8.33 C65.8709986,8.36949359 65.8709986,8.41050641 65.88,8.45 C65.8955472,8.49406099 65.9192992,8.53477859 65.95,8.57 L66,8.66 L69.89,13 C70.0201662,13.143663 70.2061778,13.2239033 70.4,13.22 C70.5694765,13.2245175 70.7341921,13.1636444 70.86,13.05 C71.0025199,12.9228773 71.0840179,12.7409767 71.0840179,12.55 C71.0840179,12.3590233 71.0025199,12.1771227 70.86,12.05 L68.07,8.95 L78.68,8.95 C78.68,8.95 82.56,8.72 84.83,10.84 C85.9822128,11.9768262 86.59046,13.5538982 86.5,15.17 L86.5,19.09 C86.5,19.4710765 86.8089235,19.78 87.19,19.78 C87.5710765,19.78 87.88,19.4710765 87.88,19.09 L87.88,15.15 C87.9700394,13.1486421 87.1982551,11.2046193 85.76,9.81 L85.76,9.81 Z" id="Path" fill="#2364F9"></path>
            </g>
        </g>
    </g>
</svg>

<svg width="100" height="75" xmlns="http://www.w3.org/2000/svg"><g fill-rule="nonzero" fill="none"><path d="M87.16 22.68a8.23 8.23 0 108.32 8.23 8.28 8.28 0 00-8.32-8.23zm0 15.07a6.84 6.84 0 116.92-6.84 6.89 6.89 0 01-6.92 6.84zM12.84 22.68a8.23 8.23 0 108.32 8.23 8.28 8.28 0 00-8.32-8.23zm0 15.07a6.84 6.84 0 116.92-6.84 6.89 6.89 0 01-6.92 6.84zM50 0a8.28 8.28 0 00-8.32 8.23 8.32 8.32 0 0016.64 0A8.28 8.28 0 0050 0zm0 15.07a6.89 6.89 0 01-6.92-6.84 6.92 6.92 0 1113.84 0A6.89 6.89 0 0150 15.07z" fill="#002465"/><path d="M87.16 41.9c-7.047-.033-12.79 5.644-12.84 12.69V74.3a.7.7 0 001.4 0V54.59c0-6.318 5.122-11.44 11.44-11.44S98.6 48.272 98.6 54.59V74.3a.7.7 0 001.4 0V54.59c-.05-7.046-5.793-12.723-12.84-12.69z" fill="#A6C4DD"/><path d="M81.31 52.94a.7.7 0 00-.7.7V74.3a.7.7 0 001.4 0V53.64a.7.7 0 00-.7-.7zM93 52.94a.7.7 0 00-.7.7V74.3a.7.7 0 001.4 0V53.64a.7.7 0 00-.7-.7zM12.84 41.9C5.793 41.867.05 47.544 0 54.59V74.3a.7.7 0 001.4 0V54.59c0-6.318 5.122-11.44 11.44-11.44s11.44 5.122 11.44 11.44V74.3a.7.7 0 001.4 0V54.59c-.05-7.046-5.793-12.723-12.84-12.69z" fill="#A6C4DD"/><path d="M7 52.94a.7.7 0 00-.7.7V74.3a.7.7 0 001.4 0V53.64a.7.7 0 00-.7-.7zM18.69 52.94a.7.7 0 00-.7.7V74.3a.7.7 0 001.4 0V53.64a.7.7 0 00-.7-.7zM50 19.21c-7.048-.028-12.79 5.652-12.84 12.7v19.71a.7.7 0 001.4 0V31.91c0-6.318 5.122-11.44 11.44-11.44s11.44 5.122 11.44 11.44v19.71a.7.7 0 001.4 0V31.91c-.05-7.048-5.792-12.728-12.84-12.7z" fill="#A6C4DD"/><path d="M44.15 30.26a.7.7 0 00-.7.7v20.66a.7.7 0 001.4 0V31a.7.7 0 00-.7-.74zM55.85 30.26a.7.7 0 00-.7.7v20.66a.7.7 0 001.4 0V31a.7.7 0 00-.7-.74z" fill="#A6C4DD"/><path d="M63.37 65.17a.27.27 0 000-.12.43.43 0 000-.26.35.35 0 000-.13l-.07-.11v-.09l-3.92-4.24a.69.69 0 00-1 0 .68.68 0 000 1l2.9 3.14H37.87v1.37h23.27l-2.79 3.1a.67.67 0 000 1 .68.68 0 00.97-.05l3.88-4.3v-.08a.33.33 0 00.17-.23zM32.34 7.56H21.16c-.19 0-4.47-.26-7.18 2.26a7 7 0 00-2.12 5.34V18l-3.17-2.84a.69.69 0 00-.92 1l4.32 3.86.13.07.07.05a.8.8 0 00.26 0 .75.75 0 00.26 0l.08-.05A.46.46 0 0013 20l4.26-3.9a.68.68 0 000-1 .69.69 0 00-1 0L13.24 18v-2.85a5.65 5.65 0 011.68-4.33c2.26-2.12 6.1-1.9 6.19-1.89h11.23a.69.69 0 100-1.38v.01zM85.76 9.81c-2.71-2.52-7-2.27-7.13-2.26H68.05L71 4.43a.68.68 0 000-1 .69.69 0 00-1 0l-4 4.3s0 .07-.05.1a.41.41 0 00-.07.11.5.5 0 000 .13.51.51 0 000 .13.69.69 0 000 .13.27.27 0 000 .12.37.37 0 00.07.12l.05.09L69.89 13a.67.67 0 00.51.22.67.67 0 00.46-1.17l-2.79-3.1h10.61s3.88-.23 6.15 1.89a5.64 5.64 0 011.67 4.33v3.92a.69.69 0 101.38 0v-3.94a7 7 0 00-2.12-5.34z" fill="#2364F9"/></g></svg>
